packages/web-icons/svgs/pc.svg

<svg viewBox="0 0 48 48" xmlns="http://www.w3.org/2000/svg" class="ridi_icon"><path d="M28.8 42.2h9.6v4.9H9.6v-4.9h9.6v-6.4H0V.9h48v34.9H28.8v6.4zm12.8-12.8V7.3H6.4v22.1h35.2z"/></svg>

<?xml version="1.0" encoding="UTF-8"?>
<svg width="48px" height="48px" viewBox="0 0 48 48" version="1.1" xmlns="http://www.w3.org/2000/svg">
  <!-- Generator: Sketch 41.2 (35397) - http://www.bohemiancoding.com/sketch -->
  <title>pc</title>
  <desc>Created with Sketch.</desc>
  <defs></defs>
  <g id="Page-1" stroke="none" stroke-width="1" fill="none" fill-rule="evenodd">
    <g id="pc" fill="#000000">
      <g id="레이어_1">
        <path d="M28.8,42.2 L38.4,42.2 L38.4,47.1 L9.6,47.1 L9.6,42.2 L19.2,42.2 L19.2,35.8 L0,35.8 L0,0.9 L48,0.9 L48,35.8 L28.8,35.8 L28.8,42.2 L28.8,42.2 Z M41.6,29.4 L41.6,7.3 L6.4,7.3 L6.4,29.4 L41.6,29.4 Z" id="Shape"></path>
      </g>
    </g>
  </g>
</svg>
